src/pos-icons/refresh-circle.svg

<svg height="24" viewBox="0 0 24 24" width="24" xmlns="http://www.w3.org/2000/svg"><path d="m12 2a10 10 0 1 0 10 10 10 10 0 0 0 -10-10m6 9h-5l1.81-1.81a3.94 3.94 0 0 0 -2.81-1.19 4 4 0 1 0 3.86 5h2.05a6 6 0 1 1 -5.91-7 5.91 5.91 0 0 1 4.22 1.78l1.78-1.78z"/></svg>

<?xml version="1.0" encoding="UTF-8"?><!DOCTYPE svg PUBLIC "-//W3C//DTD SVG 1.1//EN" "http://www.w3.org/Graphics/SVG/1.1/DTD/svg11.dtd"><svg xmlns="http://www.w3.org/2000/svg" xmlns:xlink="http://www.w3.org/1999/xlink" version="1.1" id="mdi-refresh-circle" width="24" height="24" viewBox="0 0 24 24"><path d="M12 2A10 10 0 1 0 22 12A10 10 0 0 0 12 2M18 11H13L14.81 9.19A3.94 3.94 0 0 0 12 8A4 4 0 1 0 15.86 13H17.91A6 6 0 1 1 12 6A5.91 5.91 0 0 1 16.22 7.78L18 6Z" /></svg>
